X:1
T:Title
%%score 1 { 2 | 3 }
L:1/8
Q:1/4=95
M:9/8
K:A
V:1 treble nm="Grand Piano, Soprano"
V:2 bass nm="Choir Pad, Epaphroditus, P. P. Bliss"
V:3 bass 
V:1
 EEE E [Ec]2- [Ec]3/2 z/ [Ec] | [Ec][Ec][EB] A [GB]2- [GB]2- [GB]/ z/ | %2
w: By~Philip~Paul~Bliss~(1838\-1876) * * * * * *||
 EEE E [EB]2- [EB]3/2 z/ [EB] | [EB][EB][EA] [EG] [EA]2- [EA]2- [EA]/ z/ | %4
w: ||
 EE[EA] [Ec] [Ae]2- [Ae]2 [Ec] | [Ec][Ec][DB] [CA] [DF]2- [DF]2- [DF]/ z/ | %6
w: ||
 [DF][Fd][Fc] [FB] [EA]2- [EA]3/2 z/ [EA] | [EA][EB][EA] [EG] [EA]2- [EA]2- [EA]/ z/ | %8
w: ||
 EEE E [EA]2- [EA]3/2 z/ [EA] | [EA][EA][EG] A [GB]2- [GB]2- [GB]/ z/ | %10
w: ||
 EEE E [EB]2- [EB]3/2 z/ [EB] | [EB][EB][EA] [EB] [Ec]2- [Ec]2- [Ec]/ z/ | %12
w: ||
 [CE][CE][CA] [Ec] [Ae]2- [Ae]3/2 z/ [Ec] | [Ec][Ec][DB] [CA] [DF]2- [DF]2- [DF]/ z/ | %14
w: ||
 [DF][Fd][Fc] [FB] [EA]2- [EA]3/2 z/ [EA] | [EA][EB][EA] [EG] [EA]2- [EA]3- | [EA]3 z3 z3 |] %17
w: |||
V:2
 E,E,E, E, A,2- A,3/2 z/ A, | CED C E2- E2- E/ z/ | E,E,E, E, D2- D3/2 z/[K:treble] D | %3
 DDC B, C2- C2- C/ z/ | CCC C C2- C2[K:bass] A, | A,A,A, A, A,2- A,2- A,/ z/ | %6
 A,A,A, B,[K:treble] C2- C3/2 z/ C | CDC B, C2- C2- C/ z/ | z3 z CC CCC | CED CEE E E2 | %10
 z3 z[K:bass] G,G, G,G,G, | G,G,A, G,A,A, A, A,2 | z3 z[K:treble] CC CCA, | A,A,A, A,A,A, A, A,2 | %14
 z3[K:treble] B,CC CCC | CDC B, C2- C3- | C3 z3 z3 |] %17
V:3
 z3 z A,,2- A,,3/2 z/ A,, | A,,A,,A,, A,, E,2- E,2- E,/ z/ | z3 z E,2- E,3/2 z/ E, | %3
 E,E,E, E, A,,2- A,,2- A,,/ z/ | A,,A,,A,, A,, A,2- A,2 z | z3 z D,2- D,2- D,/ z/ | %6
 D,D,D, D, E,2- E,3/2 z/ E, | E,E,E, E, A,,2- A,,2- A,,/ z/ | z3 z A,A, A,A,A, | %9
 A,CB, A,E,E, E, E,2 | z3 z E,E, E,E,E, | E,E,C, .E,3 z3 | z3 z A,A, A, .A,2 | z3 z D,D, D, D,2 | %14
 z3 D,E,E, E,E,E, | E,E,E, E, A,,2- A,,3- | A,,3 z3 z3 |] %17

